assets/Briefs/Flat/briefs_flat.svg

<svg width="32" height="32" viewBox="0 0 32 32" fill="none" xmlns="http://www.w3.org/2000/svg">
<path d="M14.45 30H17.55C18.7361 29.9984 19.8743 29.5316 20.72 28.7L28.66 20.87C29.0898 20.4478 29.4299 19.9432 29.6602 19.3865C29.8904 18.8298 30.006 18.2324 30 17.63V12.37C30.0014 12.1906 29.9672 12.0126 29.8994 11.8465C29.8316 11.6803 29.7317 11.5292 29.6053 11.4019C29.4788 11.2745 29.3285 11.1734 29.1628 11.1045C28.9971 11.0355 28.8195 11 28.64 11H3.36004C3.18059 11 3.00293 11.0355 2.83727 11.1045C2.67161 11.1734 2.52124 11.2745 2.39482 11.4019C2.2684 11.5292 2.16843 11.6803 2.10068 11.8465C2.03292 12.0126 1.99872 12.1906 2.00004 12.37V17.63C1.9981 18.2274 2.11565 18.8191 2.34577 19.3704C2.5759 19.9216 2.91395 20.4213 3.34004 20.84L11.28 28.67C12.1209 29.5126 13.2597 29.9904 14.45 30V30Z" fill="#00A6ED"/>
<path d="M30 12.37C30.0014 12.1906 29.9672 12.0126 29.8994 11.8465C29.8316 11.6803 29.7317 11.5292 29.6053 11.4019C29.4788 11.2745 29.3285 11.1734 29.1628 11.1045C28.9971 11.0355 28.8195 11 28.64 11H3.36004C3.18059 11 3.00293 11.0355 2.83727 11.1045C2.67161 11.1734 2.52124 11.2745 2.39482 11.4019C2.2684 11.5292 2.16843 11.6803 2.10068 11.8465C2.03292 12.0126 1.99872 12.1906 2.00004 12.37V13.9961L10.2699 13.9995L6.21802 23.6736L7.75391 25.1836L12.4379 14.0004L19.5603 14.0033L24.1419 25.3321L25.6836 23.8086L21.718 14.0042L30 14.0076V12.37Z" fill="#26EAFC"/>
</svg>

<svg xmlns="http://www.w3.org/2000/svg" width="32" height="32" fill="none"><path fill="#00A6ED" d="M14.45 30h3.1a4.53 4.53 0 0 0 3.17-1.3l7.94-7.83A4.48 4.48 0 0 0 30 17.63v-5.26A1.357 1.357 0 0 0 28.64 11H3.36A1.36 1.36 0 0 0 2 12.37v5.26a4.48 4.48 0 0 0 1.34 3.21l7.94 7.83A4.53 4.53 0 0 0 14.45 30Z"/><path fill="#26EAFC" d="M30 12.37A1.357 1.357 0 0 0 28.64 11H3.36A1.36 1.36 0 0 0 2 12.37v1.626l8.27.003-4.052 9.675 1.536 1.51L12.438 14l7.122.003 4.582 11.33 1.542-1.524-3.966-9.805 8.282.004V12.37Z"/></svg>
